X: 360
T: Bir Dâme Düşürdü ki Beni
C: Hacı Fâik Bey
O: Turkey
F: http://compmusic.upf.edu/node/140
N: rast--sarki--aksak--bir_dame--haci_faik_bey
N: makam= rast
N: form= sarki
N: usul= aksak = 9/8
M: 9/8
L: 1/16
K: C _1/4B ^f  
Q: 1/4=156
%%MIDI tuningsystem comma53
G4 B4 ^cdec d4 Bd | c3/2B/ AcB3/2A/ GBA3/2G/ FBAG FED2  | 
w:  ARANAĞME  |   | 
G4 B4 ^cdec d4 Bd | c3/2B/ AcB3/2A/ GBA3/2G/ FAG6  | 
w:   |   | 
G3A B2c2 d2{f}ed d2c2 B2 | B2 ABc2 {e}dc(3BAB cAG4z2  | 
w:  Bir  *  dâ *  me  *  dü *  şür  |  dü  *  *  ki  *  be *  ni   | 
c4 d2_3/4e2 f2d2 e2c2 e{f}d | d6 B2c2 BAG4z2  | \
w:  bah tı  si ya  |  hım   SAZ  | 
G3A B2c2 d2{f}ed d2c2 B2 | 
w:  Bir  *  dâ *  me  *  dü *  şür  | 
B2 ABc2 {e}dc(3BAB cAG4z2  | c4 d2_3/4e2 f2d2 e2c2 e{f}d | 
w:  dü  *  *  ki  *  be *  ni   |  bah tı  si ya  | 
d6 =fed3/2c/ Bcd4z2  | g4 d2e2 =f2e2 d2c2 B2 | \
w:  hım   SAZ  |  Val la *  hi  bu  sev  | 
B2 ABc2 {e}dc(3BAB cAGA Bcd2  | 
w:  da *  *  da  *  be *  nim   | 
d2B2 c2A2 B2AG A2B2 AG | G6 =fed3/2c/ Bcd4z2  | \
w:  yok *  tur  gü na  |  hım   SAZ  | 
g4 d2e2 =f2e2 d2c2 B2 | 
w:  Val la *  hi  bu  sev  | 
B2 ABc2 {e}dc(3BAB cAGA Bcd2  | d2B2 c2A2 B2AG A2B2 AG | 
w:  da *  *  da  *  be *  nim   |  yok *  tur  gü na  | 
G6 f_7/8ed3/2^c/ _7/8Bcd4z2  | ^c3d d4 _7/8efed d4 d=c | \
w:  hım   SAZ  |  Et *  mez se  *  i *  na  | 
c3_7/8BB2 BAd^c BAG4z2  | 
w:  yet  *  ba na  *  ol   | 
^c4 d2_7/8e2 f2d2 e2=c2 _1/4ed | d6 f_7/8ed3/2^c/ Bcd4z2  | \
w:  çeh re si  mâ  |  hım   SAZ  | 
^c3d d4 _7/8efed d4 d=c | 
w:  Et *  mez se  *  i *  na  | 
c3_7/8BB2 BAd^c BAG4z2  | ^c4 d2_7/8e2 f2d2 e2=c2 _1/4ed | \
w:  yet  *  ba na  *  ol   |  çeh re si  mâ  | 
d6 =fed3/2c/ Bcd4z2  | 
w:  hım   SAZ  | 
g4 d2e2 =f2e2 d2c2 B2 | B2 ABc2 {e}dc(3BAB cAGA Bcd2  | 
w:  Val la *  hi  bu  sev  |  da *  *  da  *  be *  nim   | 
d2B2 c2A2 B2AG A2B2 AG | G6 =fed3/2c/ Bcd4z2  | \
w:  yok *  tur  gü na  |  hım   SAZ  | 
g4 d2e2 =f2e2 d2c2 B2 | 
w:  Val la *  hi  bu  sev  | 
B2 ABc2 {e}dc(3BAB cAGA Bcd2  | d2B2 c2A2 B2AG A2B2 AG | 
w:  da *  *  da  *  be *  nim   |  yok *  tur  gü na  | 
G6 |
w:  hım    | 


